communes/60.svg

<?xml version="1.0" encoding="UTF-8" standalone="no"?>
<!-- Created with Inkscape (http://www.inkscape.org/) -->
<svg
   xmlns:svg="http://www.w3.org/2000/svg"
   xmlns="http://www.w3.org/2000/svg"
   xmlns:xlink="http://www.w3.org/1999/xlink"
   version="1.0"
   width="206.67696"
   height="242.08986"
   id="svg2780">
  <defs
     id="defs2782" />
  <g
     transform="translate(-20.648037,-812.77281)"
     id="layer1">
    <path
       d="M 21.648037,813.77281 L 25.369432,970.11039 C 28.027565,1081.7801 219.94546,1081.7801 222.6036,970.11039 L 226.325,813.77281 L 21.648037,813.77281 z"
       id="path3282"
       style="fill:#2161c1;fill-opacity:1;fill-rule:evenodd;stroke:#000000;stroke-width:1.99999988;stroke-linecap:butt;stroke-miterlimit:4;stroke-dashoffset:0;stroke-opacity:1" />
    <use
       transform="matrix(-1,0,0,1,247.97304,0)"
       id="use5359"
       x="0"
       y="0"
       width="248.03149"
       height="248.03149"
       xlink:href="#g4639" />
    <g
       transform="matrix(0.760684,-0.6491224,0.6491224,0.760684,-573.4377,304.80847)"
       id="g4639"
       style="fill:#ffffff;fill-opacity:1">
      <path
         d="M 123.27802,870.90289 C 120.69163,870.90289 117.17695,865.45108 116.69298,860.98912 C 116.05775,855.13264 115.8444,828.27872 115.05434,813.79602 C 114.65553,806.48539 107.33702,802.71879 104.82377,803.70726 C 106.67735,804.74845 109.99072,809.90937 110.15613,813.91704 C 110.74964,828.29708 108.66956,847.89133 109.59687,862.2537 C 110.63381,878.31399 118.56352,878.15338 118.53821,882.54454 L 118.18555,943.74099 C 118.13496,952.5194 110.03176,955.43221 109.82853,963.03139 L 107.95823,1032.9655 L 138.59782,1032.9655 L 136.72752,963.03139 C 136.52429,955.43221 128.42109,952.5194 128.3705,943.74099 L 128.01784,882.54454 C 127.99253,878.15338 135.92224,878.31399 136.95918,862.2537 C 137.88649,847.89133 135.80641,828.29708 136.39992,813.91704 C 136.56533,809.90937 139.8787,804.74845 141.73228,803.70726 C 139.21903,802.71879 131.90052,806.48539 131.50171,813.79602 C 130.71165,828.27872 130.4983,855.13264 129.86307,860.98912 C 129.3791,865.45108 125.86442,870.90289 123.27802,870.90289 z"
         id="path4629"
         style="fill:#ffffff;fill-opacity:1;fill-rule:evenodd;stroke:#000000;stroke-width:0.99921256;stroke-linecap:butt;stroke-linejoin:round;stroke-miterlimit:4;stroke-dasharray:none;stroke-opacity:1" />
      <path
         d="M 132.49678,972.67444 C 131.09697,963.87834 127.50075,957.61194 123.27802,957.61194 C 119.05487,957.61194 115.45876,963.87691 114.05927,972.67444"
         id="path4634"
         style="opacity:1;color:#000000;fill:#ffffff;fill-opacity:1;fill-rule:evenodd;stroke:#000000;stroke-width:0.99921256;stroke-linecap:round;stroke-linejoin:miter;marker:none;marker-start:none;marker-mid:none;marker-end:none;stroke-miterlimit:4;stroke-dasharray:none;stroke-dashoffset:0;stroke-opacity:1;visibility:visible;display:inline;overflow:visible;enable-background:accumulate" />
    </g>
    <path
       d="M 142.50958,860.65335 C 144.08855,858.697 147.66607,858.44569 147.66607,854.58884 C 147.66607,850.73199 144.08855,850.48067 142.50958,848.52432 C 140.93059,846.56794 141.83292,844.755 140.28319,842.81859 C 138.73346,840.8822 136.75379,841.3324 135.20406,839.396 C 133.65432,837.45958 134.52741,835.62669 132.97767,833.69029 C 131.42793,831.75387 129.44827,832.20408 127.89853,830.26767 C 126.3488,828.33126 126.38568,825.44363 123.58178,825.44363 C 120.77787,825.44363 120.81476,828.33126 119.26503,830.26767 C 117.71529,832.20408 115.73563,831.75387 114.18589,833.69029 C 112.63615,835.62669 113.50924,837.45958 111.9595,839.396 C 110.40977,841.3324 108.4301,840.8822 106.88037,842.81859 C 105.33064,844.755 106.23297,846.56794 104.65398,848.52432 C 103.07501,850.48067 99.497492,850.73199 99.497492,854.58884 C 99.497492,858.44569 103.07501,858.697 104.65398,860.65335 C 106.23297,862.60973 105.33064,864.42267 106.88037,866.35908 C 108.4301,868.29547 110.40977,867.84527 111.9595,869.78167 C 113.50924,871.71809 112.63615,873.55098 114.18589,875.48738 C 115.73563,877.4238 117.71529,876.97359 119.26503,878.91 C 120.81476,880.84641 120.77787,883.73404 123.58178,883.73404 C 126.38568,883.73404 126.3488,880.84641 127.89853,878.91 C 129.44827,876.97359 131.42793,877.4238 132.97767,875.48738 C 134.52741,873.55098 133.65432,871.71809 135.20406,869.78167 C 136.75379,867.84527 138.73346,868.29547 140.28319,866.35908 C 141.83292,864.42267 140.93059,862.60973 142.50958,860.65335 z"
       id="path5160"
       style="fill:#ffe739;fill-opacity:1;fill-rule:evenodd;stroke:#000000;stroke-width:0.99999988px;stroke-linecap:butt;stroke-linejoin:miter;stroke-opacity:1" />
    <use
       transform="translate(0,153.37006)"
       id="use5171"
       style="fill:#ffe739;fill-opacity:1"
       x="0"
       y="0"
       width="248.03149"
       height="248.03149"
       xlink:href="#path5160" />
    <use
       transform="translate(-63.188908,76.685027)"
       id="use5173"
       style="fill:#ffe739;fill-opacity:1"
       x="0"
       y="0"
       width="248.03149"
       height="248.03149"
       xlink:href="#path5160" />
    <use
       transform="translate(63.99838,76.685027)"
       id="use5175"
       style="fill:#ffe739;fill-opacity:1"
       x="0"
       y="0"
       width="248.03149"
       height="248.03149"
       xlink:href="#path5160" />
  </g>
</svg>

<?xml version="1.0" encoding="UTF-8"?>
<svg version="1.0" viewBox="0 0 206.68 242.09" xmlns="http://www.w3.org/2000/svg" xmlns:xlink="http://www.w3.org/1999/xlink">
<g transform="translate(-20.648 -812.77)">
<path d="m21.648 813.77 3.7214 156.34c2.6581 111.67 194.58 111.67 197.23 0l3.7214-156.34h-204.68z" fill="#2161c1" fill-rule="evenodd" stroke="#000" stroke-width="2"/>
<use transform="matrix(-1 0 0 1 247.97 0)" width="248.03149" height="248.03149" xlink:href="#b"/>
<g id="b" transform="matrix(.76068 -.64912 .64912 .76068 -573.44 304.81)">
<path d="m123.28 870.9c-2.5864 0-6.1011-5.4518-6.585-9.9138-0.63523-5.8565-0.84858-32.71-1.6386-47.193-0.39881-7.3106-7.7173-11.077-10.231-10.089 1.8536 1.0412 5.167 6.2021 5.3324 10.21 0.59351 14.38-1.4866 33.974-0.55926 48.337 1.0369 16.06 8.9666 15.9 8.9413 20.291l-0.35266 61.196c-0.05059 8.7784-8.1538 11.691-8.357 19.29l-1.8703 69.934h30.64l-1.8703-69.934c-0.20323-7.5992-8.3064-10.512-8.357-19.29l-0.35266-61.196c-0.02531-4.3912 7.9044-4.2306 8.9413-20.291 0.92731-14.362-1.1528-33.957-0.55926-48.337 0.16541-4.0077 3.4788-9.1686 5.3324-10.21-2.5132-0.98847-9.8318 2.7781-10.231 10.089-0.79006 14.483-1.0034 41.337-1.6386 47.193-0.48397 4.462-3.9986 9.9138-6.585 9.9138z" fill="#fff" fill-rule="evenodd" stroke="#000" stroke-linejoin="round" stroke-width=".99921"/>
<path d="m132.5 972.67c-1.3998-8.7961-4.996-15.062-9.2188-15.062-4.2232 0-7.8193 6.265-9.2188 15.062" color="#000000" fill="#fff" fill-rule="evenodd" stroke="#000" stroke-linecap="round" stroke-width=".99921"/>
</g>
<path id="a" d="m142.51 860.65c1.579-1.9564 5.1565-2.2077 5.1565-6.0645s-3.5775-4.1082-5.1565-6.0645c-1.579-1.9564-0.67666-3.7693-2.2264-5.7057-1.5497-1.9364-3.5294-1.4862-5.0791-3.4226-1.5497-1.9364-0.67665-3.7693-2.2264-5.7057-1.5497-1.9364-3.5294-1.4862-5.0791-3.4226-1.5497-1.9364-1.5128-4.824-4.3168-4.824-2.8039 0-2.767 2.8876-4.3168 4.824-1.5497 1.9364-3.5294 1.4862-5.0791 3.4226-1.5497 1.9364-0.67665 3.7693-2.2264 5.7057-1.5497 1.9364-3.5294 1.4862-5.0791 3.4226-1.5497 1.9364-0.6474 3.7494-2.2264 5.7057-1.579 1.9564-5.1565 2.2077-5.1565 6.0645s3.5775 4.1082 5.1565 6.0645c1.579 1.9564 0.67666 3.7693 2.2264 5.7057 1.5497 1.9364 3.5294 1.4862 5.0791 3.4226 1.5497 1.9364 0.67665 3.7693 2.2264 5.7057 1.5497 1.9364 3.5294 1.4862 5.0791 3.4226 1.5497 1.9364 1.5128 4.824 4.3168 4.824 2.8039 0 2.767-2.8876 4.3168-4.824 1.5497-1.9364 3.5294-1.4862 5.0791-3.4226 1.5497-1.9364 0.67665-3.7693 2.2264-5.7057 1.5497-1.9364 3.5294-1.4862 5.0791-3.4226 1.5497-1.9364 0.6474-3.7494 2.2264-5.7057z" fill="#ffe739" fill-rule="evenodd" stroke="#000" stroke-width="1px"/>
<use transform="translate(0 153.37)" width="248.03149" height="248.03149" fill="#ffe739" xlink:href="#a"/>
<use transform="translate(-63.189 76.685)" width="248.03149" height="248.03149" fill="#ffe739" xlink:href="#a"/>
<use transform="translate(63.998 76.685)" width="248.03149" height="248.03149" fill="#ffe739" xlink:href="#a"/>
</g>
</svg>
